X:57
T:Polska fr{\aa}n Sm{\aa}land
R:sl\"angpolska
A:Sm{\aa}land
Z:id:hn-sp-57
M:3/4
L:1/16
K:Gm
GABc d4 g4 | g^faf d6 =f2 | e2d2 c2B2 A2G2 | ^F2A2 d6A2 |
B2d2 A2c2 G2B2 | A2G2 ^F2A2 d3A | B2d2 A2c2 G2B2 | BAG^F G4 G,4 :|
|: f2g2 e4 d2f2 | e2d2 c2A2 B4 | g2a2 b4 a2g2 | g^faf d6 =f2 | 
e2d2 c2B2 A2G2 | ^F2A2 d6A2 | B2d2 A2c2 G2B2 | BAG^F G4 G,4 :|
<end>
<start>
